usr/share/icons/biglinux-icons-material/16/actions/view-media-lyrics.svg

<svg xmlns="http://www.w3.org/2000/svg" viewBox="0 0 16 16"><path d="M2 2v1h8V2H2zm9 1v6.5A2.477 2.477 0 0 0 9.5 9 2.495 2.495 0 0 0 7 11.5C7 12.885 8.115 14 9.5 14s2.5-1.115 2.5-2.5V5h2c0-1.108-.892-2-2-2h-1zM2 5v1h7V5H2zm0 3v1h5V8H2zm0 3v1h4v-1H2z" style="fill:currentColor;fill-opacity:1;stroke:none;color:#dedede"/></svg>

<svg xmlns="http://www.w3.org/2000/svg" viewBox="0 0 16 16">
  <defs id="defs3051">
    <style type="text/css" id="current-color-scheme">
      .ColorScheme-Text {
        color:#363636;
      }
      </style>
  </defs>
 <path style="fill:currentColor;fill-opacity:1;stroke:none" 
       d="M 2 2 L 2 3 L 10 3 L 10 2 L 2 2 z M 11 3 L 11 4 L 11 9.5 C 10.5818 9.1852 10.066 9 9.5 9 C 8.115 9 7 10.115 7 11.5 C 7 12.885 8.115 14 9.5 14 C 10.885 14 12 12.885 12 11.5 L 12 5 L 14 5 C 14 3.892 13.108 3 12 3 L 11 3 z M 2 5 L 2 6 L 9 6 L 9 5 L 2 5 z M 2 8 L 2 9 L 7 9 L 7 8 L 2 8 z M 2 11 L 2 12 L 6 12 L 6 11 L 2 11 z "
     class="ColorScheme-Text"
     />
</svg>
